X: 1
T: The Kendoon Strathspey
C: internet
R: Strathspey
K: A
M: 4/4
L: 1/16
|:e3d|"A"ce3 A4 A4 a3g|"D"fa3 d4 d4 d3c|"E"Bd3 G4 G4 e3d|"A"c3B c3d "E"e4 e3d|
"A"ce3 A4 A4 a3g|"D"fa3 d4 d4 f4|"A"e3a g3f "E"e3d c3B|"A"A4 A4 A4:|
G3A|"E"B4 E4 E4 A3B|"A"c4 E4 E4 B3c|"D"d3E c3E B3E A3E|"E"G4 E4 E4 G3A|
"E"B4 E4 E4 A3B|"A"c4 E4 E4 c3c|"B"B4 B3B c4 ^d4|"E"e12 e3d|
"A"ce3 A4 A4 a3g|"D"fa3 d4 d4 d3c|"E"Bd3 G4 G4 e3d|"A"c3B c3d "E"e4 e3d|
"A"ce3 A4 A4 a3g|"D"fa3 d4 d4 f4|"A"e3a g3f "E"e3d c3B|"A"A4 A4 A4||